packages/ui-icons/svg/Line/table-delete-column.svg

<svg viewBox="0 0 1920 1920" version="1.1" xmlns="http://www.w3.org/2000/svg">
    <path d="M1800 1740c0 33-27 60-60 60h-420v-300h-120v300H720v-300H600v300H180c-33.12 0-60-27-60-60V180c0-33 26.88-60 60-60h420v300h120V120h480v300h120V120h420c33 0 60 27 60 60v1560zM1740 0H180C80.76 0 0 80.76 0 180v1560c0 99.24 80.76 180 180 180h1560c99.24 0 180-80.76 180-180V180c0-99.24-80.76-180-180-180zm-305.16 654.84l-169.68-169.68L960 790.32 654.84 485.16 485.16 654.84 790.32 960l-305.16 305.16 169.68 169.68L960 1129.68l305.16 305.16 169.68-169.68L1129.68 960l305.16-305.16z" stroke="none" stroke-width="1" fill-rule="evenodd"/>
</svg>

<svg viewBox="0 0 1920 1920" version="1.1" xmlns="http://www.w3.org/2000/svg">
    <path d="M1800,1740 C1800,1773 1773,1800 1740,1800 L1320,1800 L1320,1500 L1200,1500 L1200,1800 L720,1800 L720,1500 L600,1500 L600,1800 L180,1800 C146.88,1800 120,1773 120,1740 L120,180 C120,147 146.88,120 180,120 L600,120 L600,420 L720,420 L720,120 L1200,120 L1200,420 L1320,420 L1320,120 L1740,120 C1773,120 1800,147 1800,180 L1800,1740 Z M1740,0 L180,0 C80.76,0 0,80.76 0,180 L0,1740 C0,1839.24 80.76,1920 180,1920 L1740,1920 C1839.24,1920 1920,1839.24 1920,1740 L1920,180 C1920,80.76 1839.24,0 1740,0 L1740,0 Z M1434.84,654.84 L1265.16,485.16 L960,790.32 L654.84,485.16 L485.16,654.84 L790.32,960 L485.16,1265.16 L654.84,1434.84 L960,1129.68 L1265.16,1434.84 L1434.84,1265.16 L1129.68,960 L1434.84,654.84 Z" stroke="none" stroke-width="1" fill-rule="evenodd"/>
</svg>
